X:280
T:score79
L:1/8
Q:1/4=96
M:4/4
I:linebreak $
K:G
 g2 z d g2 z d | gdgb d'2 z2 | c'2 z a c'2 z a | c'afa d2 z2 |$ g z g3 (b a).g | (gf) f3 (a c').f | %6
 (ag) g3 (b a).g | (gf) f3 (a c').f |$ .g.g (g/f/e/f/) .g.g (b/a/g/a/) | %9
 .b.b (d'/c'/b/c'/) d'2 z2 |] %10
